<?xml version="1.0" encoding="UTF-8"?>
<map version="1.10" tiledversion="1.11.1" orientation="orthogonal" renderorder="right-down" width="25" height="20" tilewidth="16" tileheight="16" infinite="0" nextlayerid="2" nextobjectid="1">
 <tileset firstgid="1" source="lin.tsx"/>
 <tileset firstgid="121" source="lin.tsx"/>
 <layer id="1" name="Слой тайлов 1" width="25" height="20">
  <data encoding="csv">
62,85,85,85,85,85,85,85,85,85,85,85,85,85,85,85,85,85,85,85,85,85,85,85,63,
105,4,4,43,43,43,43,43,43,43,43,43,43,43,43,43,43,43,43,43,43,43,87,87,65,
105,23,23,43,43,43,43,43,43,43,43,43,43,43,43,43,43,43,43,43,43,43,108,108,65,
105,23,23,43,43,43,43,43,43,43,43,43,43,43,43,43,43,43,43,43,43,43,108,108,65,
105,23,23,43,43,43,43,43,43,43,43,43,43,43,43,43,43,43,43,43,43,43,108,108,65,
105,23,23,43,43,43,43,43,43,43,43,43,43,43,43,43,43,46,47,5,6,7,108,108,65,
105,23,23,36,37,38,43,29,30,31,32,43,43,43,43,43,43,66,67,25,26,27,108,108,65,
105,23,23,56,57,58,43,49,50,51,52,43,43,43,43,43,43,43,43,43,43,43,108,108,65,
105,23,23,43,43,43,43,43,43,43,43,1,43,43,43,43,43,43,43,43,43,43,108,108,65,
105,23,23,43,43,43,43,43,43,43,43,21,43,43,43,43,43,43,43,43,43,43,108,108,65,
105,23,3,81,81,81,81,81,81,81,81,81,81,81,81,81,81,81,81,81,81,81,208,228,65,
105,3,81,81,81,81,81,81,81,81,81,81,81,81,81,81,81,81,81,81,81,81,201,208,65,
105,81,81,81,81,81,81,81,81,81,81,81,81,81,81,81,81,81,81,81,81,81,81,81,65,
105,81,81,81,81,81,81,81,81,81,81,81,81,81,81,81,81,81,81,81,81,81,81,81,65,
105,81,81,81,81,81,81,81,81,81,81,81,81,81,81,81,81,81,81,81,81,81,81,81,65,
105,81,81,81,81,81,81,81,81,81,81,81,81,81,81,81,81,81,81,81,81,81,81,81,65,
105,81,81,81,81,81,81,81,81,81,81,81,81,81,81,81,81,81,81,81,81,81,81,81,65,
105,81,81,81,81,81,81,81,81,81,81,81,81,81,81,81,81,81,81,81,81,81,81,81,65,
105,81,81,81,81,81,81,81,81,81,81,81,81,81,81,81,81,81,81,81,81,81,81,81,65,
82,84,84,84,84,84,84,84,84,84,84,84,84,84,84,84,84,84,84,84,84,84,84,84,83
</data>
 </layer>
</map>
